src/img/folder.svg

<svg width="100" height="100" viewBox="0 0 100 100" fill="none" xmlns="http://www.w3.org/2000/svg">
<path fill-rule="evenodd" clip-rule="evenodd" d="M39.7787 79.0304C38.8353 79.6604 37.7262 79.9964 36.5917 79.996C35.0716 79.9932 33.6146 79.388 32.54 78.313C31.4653 77.2379 30.8606 75.7807 30.8584 74.2606C30.8584 73.1261 31.1948 72.0172 31.8251 71.0739C32.4554 70.1307 33.3513 69.3956 34.3994 68.9615C35.4476 68.5275 36.6009 68.414 37.7135 68.6355C38.8261 68.857 39.8481 69.4034 40.6501 70.2058C41.4521 71.0081 41.9982 72.0302 42.2193 73.1429C42.4403 74.2556 42.3265 75.4089 41.892 76.4569C41.4576 77.5048 40.7222 78.4004 39.7787 79.0304ZM38.0426 72.0891C37.613 71.8025 37.1081 71.6497 36.5917 71.6501C35.8999 71.6513 35.2368 71.9267 34.7478 72.4161C34.2589 72.9054 33.9839 73.5688 33.9834 74.2606C33.9834 74.777 34.1365 75.2817 34.4235 75.7111C34.7104 76.1404 35.1182 76.475 35.5953 76.6725C36.0724 76.87 36.5974 76.9216 37.1038 76.8207C37.6103 76.7198 38.0754 76.471 38.4404 76.1057C38.8054 75.7404 39.0538 75.2751 39.1543 74.7686C39.2548 74.262 39.2028 73.7371 39.0049 73.2602C38.807 72.7832 38.4721 72.3757 38.0426 72.0891Z" fill="#616F8A"/>
<path d="M32.4209 57.8334H40.7646C41.179 57.8334 41.5765 57.6688 41.8695 57.3758C42.1625 57.0827 42.3271 56.6853 42.3271 56.2709V34.373C42.3271 33.9586 42.1625 33.5612 41.8695 33.2681C41.5765 32.9751 41.179 32.8105 40.7646 32.8105C40.3503 32.8105 39.9528 32.9751 39.6598 33.2681C39.3668 33.5612 39.2021 33.9586 39.2021 34.373V53.7084C39.2021 54.2607 38.7544 54.7084 38.2021 54.7084H34.9938C34.4415 54.7084 33.9938 54.2607 33.9938 53.7084V27.1042C33.9938 26.552 34.4415 26.1042 34.9938 26.1042H38.2021C38.7544 26.1042 39.2021 26.552 39.2021 27.1042V29.1459C39.2021 29.5603 39.3668 29.9577 39.6598 30.2508C39.9528 30.5438 40.3503 30.7084 40.7646 30.7084C41.179 30.7084 41.5765 30.5438 41.8695 30.2508C42.1625 29.9577 42.3271 29.5603 42.3271 29.1459V24.5417C42.3271 24.1273 42.1625 23.7299 41.8695 23.4369C41.5765 23.1439 41.179 22.9792 40.7646 22.9792H32.4209C32.0065 22.9792 31.6091 23.1439 31.316 23.4369C31.023 23.7299 30.8584 24.1273 30.8584 24.5417V56.2813C30.8611 56.6939 31.027 57.0887 31.3197 57.3795C31.6124 57.6702 32.0083 57.8334 32.4209 57.8334Z" fill="#616F8A"/>
<path fill-rule="evenodd" clip-rule="evenodd" d="M62.5917 79.996C63.7262 79.9964 64.8353 79.6604 65.7787 79.0304C66.7222 78.4004 67.4576 77.5048 67.892 76.4569C68.3265 75.4089 68.4403 74.2556 68.2193 73.1429C67.9982 72.0302 67.4521 71.0081 66.6501 70.2058C65.8481 69.4034 64.8261 68.857 63.7135 68.6355C62.6009 68.414 61.4476 68.5275 60.3994 68.9615C59.3513 69.3956 58.4554 70.1307 57.8251 71.0739C57.1948 72.0172 56.8584 73.1261 56.8584 74.2606C56.8606 75.7807 57.4653 77.2379 58.54 78.313C59.6146 79.388 61.0716 79.9932 62.5917 79.996ZM62.5917 71.6501C63.1081 71.6497 63.613 71.8025 64.0426 72.0891C64.4721 72.3757 64.807 72.7832 65.0049 73.2602C65.2028 73.7371 65.2548 74.262 65.1543 74.7686C65.0538 75.2751 64.8054 75.7404 64.4404 76.1057C64.0754 76.471 63.6103 76.7198 63.1038 76.8207C62.5974 76.9216 62.0724 76.87 61.5953 76.6725C61.1182 76.475 60.7104 76.1404 60.4235 75.7111C60.1365 75.2817 59.9834 74.777 59.9834 74.2606C59.9839 73.5688 60.2589 72.9054 60.7478 72.4161C61.2368 71.9267 61.8999 71.6513 62.5917 71.6501Z" fill="#616F8A"/>
<path d="M58.4209 57.8334H66.7646C67.1791 57.8334 67.5765 57.6688 67.8695 57.3758C68.1625 57.0827 68.3271 56.6853 68.3271 56.2709V52.373C68.3271 51.9586 68.1625 51.5612 67.8695 51.2681C67.5765 50.9751 67.1791 50.8105 66.7646 50.8105C66.3503 50.8105 65.9528 50.9751 65.6598 51.2681C65.3668 51.5612 65.2021 51.9586 65.2021 52.373V53.7084C65.2021 54.2607 64.7544 54.7084 64.2021 54.7084H60.9938C60.4415 54.7084 59.9938 54.2607 59.9938 53.7084V27.1042C59.9938 26.552 60.4415 26.1042 60.9938 26.1042H64.2021C64.7544 26.1042 65.2021 26.552 65.2021 27.1042V47.1459C65.2021 47.5603 65.3668 47.9577 65.6598 48.2508C65.9528 48.5438 66.3503 48.7084 66.7646 48.7084C67.1791 48.7084 67.5765 48.5438 67.8695 48.2508C68.1625 47.9577 68.3271 47.5603 68.3271 47.1459V24.5417C68.3271 24.1273 68.1625 23.7299 67.8695 23.4369C67.5765 23.1439 67.1791 22.9792 66.7646 22.9792H58.4209C58.0065 22.9792 57.6091 23.1439 57.316 23.4369C57.023 23.7299 56.8584 24.1273 56.8584 24.5417V56.2813C56.8611 56.6939 57.027 57.0887 57.3197 57.3795C57.6124 57.6702 58.0083 57.8334 58.4209 57.8334Z" fill="#616F8A"/>
<path fill-rule="evenodd" clip-rule="evenodd" d="M75.623 6.99976H23.5625C23.1481 6.99976 22.7507 7.16438 22.4577 7.45741C22.1647 7.75043 22 8.14786 22 8.56226V91.4164C21.9987 91.6225 22.0381 91.8268 22.116 92.0176C22.1939 92.2083 22.3088 92.3818 22.454 92.528C22.5992 92.6742 22.7719 92.7902 22.9622 92.8694C23.1524 92.9486 23.3565 92.9893 23.5625 92.9893H75.623C76.0373 92.9893 76.4348 92.8247 76.7278 92.5317C77.0208 92.2387 77.1855 91.8412 77.1855 91.4268V8.56226C77.1855 8.14786 77.0208 7.75043 76.7278 7.45741C76.4348 7.16438 76.0373 6.99976 75.623 6.99976ZM48 11.1248C48 10.5725 47.5523 10.1248 47 10.1248H26.125C25.5728 10.1248 25.125 10.5725 25.125 11.1248V88.8643C25.125 89.4166 25.5728 89.8643 26.125 89.8643H47C47.5523 89.8643 48 89.4166 48 88.8643V11.1248ZM52.1854 89.8643C51.6332 89.8643 51.1854 89.4166 51.1854 88.8643V11.1248C51.1854 10.5725 51.6332 10.1248 52.1854 10.1248H73.0605C73.6127 10.1248 74.0605 10.5725 74.0605 11.1248V88.8643C74.0605 89.4166 73.6127 89.8643 73.0605 89.8643H52.1854Z" fill="#616F8A"/>
</svg>

<svg width="100" height="100" fill="none" xmlns="http://www.w3.org/2000/svg"><path fill-rule="evenodd" clip-rule="evenodd" d="M39.779 79.03a5.735 5.735 0 0 1-3.187.966 5.744 5.744 0 0 1-5.734-5.735 5.736 5.736 0 1 1 8.92 4.77zm-1.736-6.94a2.61 2.61 0 1 0-2.898 4.343 2.61 2.61 0 0 0 2.898-4.344z" fill="#616F8A"/><path d="M32.42 57.833h8.345a1.563 1.563 0 0 0 1.562-1.562V34.373a1.563 1.563 0 0 0-3.125 0v19.335a1 1 0 0 1-1 1h-3.208a1 1 0 0 1-1-1V27.104a1 1 0 0 1 1-1h3.208a1 1 0 0 1 1 1v2.042a1.563 1.563 0 0 0 3.125 0v-4.604a1.562 1.562 0 0 0-1.562-1.563H32.42a1.563 1.563 0 0 0-1.563 1.563v31.74a1.563 1.563 0 0 0 1.563 1.551z" fill="#616F8A"/><path fill-rule="evenodd" clip-rule="evenodd" d="M62.592 79.996a5.735 5.735 0 1 0-5.734-5.735 5.744 5.744 0 0 0 5.734 5.735zm0-8.346a2.61 2.61 0 1 1 .004 5.222 2.61 2.61 0 0 1-.004-5.222z" fill="#616F8A"/><path d="M58.42 57.833h8.345a1.562 1.562 0 0 0 1.562-1.562v-3.898a1.563 1.563 0 0 0-3.125 0v1.335a1 1 0 0 1-1 1h-3.208a1 1 0 0 1-1-1V27.104a1 1 0 0 1 1-1h3.208a1 1 0 0 1 1 1v20.042a1.563 1.563 0 0 0 3.125 0V24.542a1.562 1.562 0 0 0-1.562-1.563H58.42a1.563 1.563 0 0 0-1.563 1.563v31.74a1.563 1.563 0 0 0 1.563 1.551z" fill="#616F8A"/><path fill-rule="evenodd" clip-rule="evenodd" d="M75.623 7h-52.06A1.562 1.562 0 0 0 22 8.562v82.854a1.564 1.564 0 0 0 1.563 1.573h52.06a1.563 1.563 0 0 0 1.563-1.562V8.562A1.563 1.563 0 0 0 75.623 7zM48 11.125a1 1 0 0 0-1-1H26.125a1 1 0 0 0-1 1v77.74a1 1 0 0 0 1 1H47a1 1 0 0 0 1-1v-77.74zm4.185 78.74a1 1 0 0 1-1-1v-77.74a1 1 0 0 1 1-1h20.876a1 1 0 0 1 1 1v77.74a1 1 0 0 1-1 1H52.184z" fill="#616F8A"/></svg>
